**harmony	**harte	**kern	**silbe	**kern.1	**silbe.1	**rhyme	**timestamp	**phrase
*M4/4	*M4/4	*ICvox	*	*ICvox	*	*	*	*
*	*	*VRlead	*	*VRharmonize	*	*	*	*
*	*	*Hstimme	*	*Nstimme	*	*	*	*
*D:	*D:	*D:	*	*D:	*	*	*	*
*	*	*M4/4	*	*M4/4	*	*	*	*
*	*	*clefC3	*	*clefC3	*	*	*	*
1r;	1r	r;	.	r;	.	.	0	.
=1	=1	=1	=1	=1	=1	=1	=1	=1
*>Letter>A	*>Letter>A	*>Letter>A	*>Letter>A	*>Letter>A	*>Letter>A	*>Letter>A	*>Letter>A	*>Letter>A
*>Label>Intro	*>Label>Intro	*>Label>Intro	*>Label>Intro	*>Label>Intro	*>Label>Intro	*>Label>Intro	*>Label>Intro	*>Label>Intro
1DM	D:maj	1r	.	1r	.	.	0.302	newline
=2	=2	=2	=2	=2	=2	=2	=2	=2
1Bmm	B:min7	1r	.	1r	.	.	2.467	.
=3	=3	=3	=3	=3	=3	=3	=3	=3
1F#mm	F#:min7	1r	.	1r	.	.	4.632	.
=4	=4	=4	=4	=4	=4	=4	=4	=4
2AM	A:sus4(b7)	1r	.	1r	.	.	6.798	.
2AM	A:maj	.	.	.	.	.	7.88	.
=5	=5	=5	=5	=5	=5	=5	=5	=5
1DM	D:maj	1r	.	1r	.	.	8.963	newline
=6	=6	=6	=6	=6	=6	=6	=6	=6
1Bmm	B:min7	1r	.	1r	.	.	11.039	.
=7	=7	=7	=7	=7	=7	=7	=7	=7
1F#mm	F#:min7	1r	.	1r	.	.	13.114	.
=8	=8	=8	=8	=8	=8	=8	=8	=8
2AM	A:sus4(b7)	1r	.	1r	.	.	15.19	.
2AM	A:maj	.	.	.	.	.	16.228	.
=9	=9	=9	=9	=9	=9	=9	=9	=9
1AM	A:sus4(b7)	1r	.	1r	.	.	17.266	.
=10	=10	=10	=10	=10	=10	=10	=10	=10
*>Letter>B	*>Letter>B	*>Letter>B	*>Letter>B	*>Letter>B	*>Letter>B	*>Letter>B	*>Letter>B	*>Letter>B
*>Label>Verse	*>Label>Verse	*>Label>Verse	*>Label>Verse	*>Label>Verse	*>Label>Verse	*>Label>Verse	*>Label>Verse	*>Label>Verse
1DM	D:maj	8.d	Day	1r	.	.	19.342	newline
.	.	[16d	turned	.	.	.	.	.
.	.	8d]	_	.	.	.	.	.
.	.	[8d	black	.	.	.	.	.
.	.	8d]	_	.	.	.	.	.
.	.	8r	.	.	.	.	.	.
.	.	4r	.	.	.	.	.	.
=11	=11	=11	=11	=11	=11	=11	=11	=11
1Bmm	B:min7	8.d	sky	1r	.	.	21.43	.
.	.	[16d	ripped	.	.	.	.	.
.	.	16d]	_	.	.	.	.	.
.	.	16e	a-	.	.	.	.	.
.	.	12d	-part	.	.	A	.	.
.	.	12c#	_	.	.	.	.	.
.	.	12B	_	.	.	.	.	.
.	.	8r	.	.	.	.	.	.
.	.	4r	.	.	.	.	.	.
=12	=12	=12	=12	=12	=12	=12	=12	=12
1F#mm	F#:min7	8r	.	1r	.	.	23.518	.
.	.	4c#	rained	.	.	.	.	.
.	.	16c#	for	.	.	.	.	.
.	.	16c#	a	.	.	.	.	.
.	.	4.c#	year,	.	.	.	.	.
.	.	16A	'till	.	.	.	.	.
.	.	16A	it	.	.	.	.	.
=13	=13	=13	=13	=13	=13	=13	=13	=13
.	.	8Aq	_	.	.	.	.	.
2AM	A:sus4(b7)	[4d	dam	1r	.	.	25.606	.
.	.	12d]	_	.	.	.	.	.
.	.	12c#	pened	.	.	.	.	.
.	.	12A	my	.	.	.	.	.
2AM	A:maj	4.G	heart	.	.	A	26.65	.
.	.	8r	.	.	.	.	.	.
=14	=14	=14	=14	=14	=14	=14	=14	=14
1DM	D:maj	8r	.	1r	.	.	27.694	newline
.	.	4d	Cracks	.	.	.	.	.
.	.	16d	and	.	.	.	.	.
.	.	16d	l-	.	.	.	.	.
.	.	4.d	-leaks,	.	.	.	.	.
.	.	16A	the	.	.	.	.	.
.	.	[16d	floor	.	.	.	.	.
=15	=15	=15	=15	=15	=15	=15	=15	=15
1Bmm	B:min7	8d]	_	1r	.	.	29.764	.
.	.	4d	boards	.	.	.	.	.
.	.	8e	caught	.	.	B	.	.
.	.	12d	rot	.	.	B	.	.
.	.	12c#	_	.	.	.	.	.
.	.	12B	_	.	.	.	.	.
.	.	4r	.	.	.	.	.	.
=16	=16	=16	=16	=16	=16	=16	=16	=16
1F#mm	F#:min7	8r	.	1r	.	.	31.834	.
.	.	[8c#	'bout	.	.	.	.	.
.	.	16c#]	_	.	.	.	.	.
.	.	16c#	to	.	.	.	.	.
.	.	8c#	go	.	.	.	.	.
.	.	4.c#	down,	.	.	.	.	.
.	.	16A	I	.	.	.	.	.
.	.	16A	had	.	.	.	.	.
=17	=17	=17	=17	=17	=17	=17	=17	=17
2AM	A:sus4(b7)	4.d	al-	1r	.	.	33.904	.
.	.	[8B	-most	.	.	.	.	.
2AM	A:maj	8B]	_	.	.	.	34.939	.
.	.	8A	for-	.	.	.	.	.
.	.	4G	-got.	.	.	B	.	.
=18	=18	=18	=18	=18	=18	=18	=18	=18
1AM	A:sus4(b7)	1r	.	1r	.	.	35.974	.
=19	=19	=19	=19	=19	=19	=19	=19	=19
*>Letter>C	*>Letter>C	*>Letter>C	*>Letter>C	*>Letter>C	*>Letter>C	*>Letter>C	*>Letter>C	*>Letter>C
*>Label>Chorus	*>Label>Chorus	*>Label>Chorus	*>Label>Chorus	*>Label>Chorus	*>Label>Chorus	*>Label>Chorus	*>Label>Chorus	*>Label>Chorus
2DM	D:maj	8A	All	1r	.	.	38.044	newline
.	.	8A	I	.	.	.	.	.
.	.	8B	got	.	.	.	.	.
.	.	8A	to	.	.	.	.	.
2Bm	B:min	8d	do	.	.	C	39.083	.
.	.	8B	_	.	.	.	.	.
.	.	8B	is	.	.	.	.	.
.	.	8A	to	.	.	C	.	.
=20	=20	=20	=20	=20	=20	=20	=20	=20
2F#m	F#:min	4r	.	1r	.	.	40.122	.
.	.	8r	.	.	.	.	.	.
.	.	8A	to	.	.	C	.	.
.	.	8E#q	_	.	.	.	.	.
4AM	A:sus4(b7)	4F#	love	.	.	.	41.161	.
4AMm	A:7	4E	you,	.	.	C	41.68	.
=21	=21	=21	=21	=21	=21	=21	=21	=21
2DM	D:maj	8A	all	1r	.	.	42.2	.
.	.	8A	I	.	.	.	.	.
.	.	8B	got	.	.	.	.	.
.	.	8A	to	.	.	.	.	.
2Bm	B:min	8d	be	.	.	D	43.238	.
.	.	8B	_	.	.	.	.	.
.	.	8B	is	.	.	.	.	.
.	.	8d	a'	.	.	.	.	.
=22	=22	=22	=22	=22	=22	=22	=22	=22
2.CM	C:maj	4r	.	1r	.	.	44.277	.
.	.	16r	.	.	.	.	.	.
.	.	8eq	_	.	.	.	.	.
.	.	8.f	be	.	.	D	.	.
.	.	8e	hap	.	.	.	.	.
.	.	8d	_	.	.	.	.	.
4GM	G:maj	4d	py,	.	.	d	45.835	.
=23	=23	=23	=23	=23	=23	=23	=23	=23
2F#mm	F#:min7	8A	all	1r	.	.	46.355	newline
.	.	8A	it's	.	.	.	.	.
.	.	8B	got	.	.	.	.	.
.	.	8A	to	.	.	.	.	.
2Bm	B:min	8d	take	.	.	E	47.394	.
.	.	8B	_	.	.	.	.	.
.	.	8B	is	.	.	.	.	.
.	.	8A	some	.	.	.	.	.
=24	=24	=24	=24	=24	=24	=24	=24	=24
2F#m	F#:min	8r	.	1r	.	.	48.433	.
.	.	4F#	warmth	.	.	.	.	.
.	.	16E	to	.	.	.	.	.
.	.	[16F#	make	.	.	E	.	.
2AMm	A:7	16F#]	_	.	.	.	49.473	.
.	.	8.A	it	.	.	.	.	.
.	.	8B	blow	.	.	.	.	.
.	.	8d	a-	.	.	.	.	.
=25	=25	=25	=25	=25	=25	=25	=25	=25
2FM	F:maj	4f	-way,	1r	.	.	50.512	.
.	.	8f	blow	.	.	.	.	.
.	.	8c	a-	.	.	.	.	.
2CM	C:maj	16e	-way	.	.	.	51.551	.
.	.	16d	_	.	.	.	.	.
.	.	8c	_	.	.	.	.	.
.	.	16e	blow	.	.	.	.	.
.	.	16d	_	.	.	.	.	.
.	.	8c	a-	.	.	.	.	.
=26	=26	=26	=26	=26	=26	=26	=26	=26
2AM	A:sus4(b7)	4d	-way	1r	.	.	52.591	.
.	.	4r	.	.	.	.	.	.
2AM	A:maj	2r	.	.	.	.	53.63	.
=27	=27	=27	=27	=27	=27	=27	=27	=27
2DM	D:maj	8A	All	8d	All	.	54.669	newline
.	.	8A	I	8d	I	.	.	.
.	.	8B	got	8e	got	.	.	.
.	.	8A	to	8d	to	.	.	.
2Bm	B:min	8d	do	8f#	do	B	55.704	.
.	.	8B	_	8e	_	.	.	.
.	.	8B	is	8e	is	.	.	.
.	.	8A	to	8d	to	B	.	.
=28	=28	=28	=28	=28	=28	=28	=28	=28
2F#m	F#:min	4r	.	1r	.	.	56.739	.
.	.	8r	.	.	.	.	.	.
.	.	8A	to	.	.	B	.	.
.	.	8E#q	_	.	.	.	.	.
4AM	A:sus4(b7)	4F#	love	.	.	B	57.774	.
4AMm	A:7	4E	you,	.	.	.	58.291	.
=29	=29	=29	=29	=29	=29	=29	=29	=29
2DM	D:maj	8A	all	8d	all	.	58.808	.
.	.	8A	I	8d	I	.	.	.
.	.	8B	got	8e	got	.	.	.
.	.	8A	to	8d	to	.	.	.
2Bm	B:min	8d	be	8f#	be	C	59.843	.
.	.	8B	_	8e	_	.	.	.
.	.	8B	is	8e	is	.	.	.
.	.	8d	a'	8f#	a'	.	.	.
=30	=30	=30	=30	=30	=30	=30	=30	=30
2.CM	C:maj	4r	.	1r	.	.	60.878	.
.	.	16r	.	.	.	.	.	.
.	.	8eq	_	.	.	.	.	.
.	.	8.f	be	.	.	C	.	.
.	.	8e	hap	.	.	.	.	.
.	.	8d	_	.	.	.	.	.
4GM	G:maj	4d	py,	.	.	C	62.43	.
=31	=31	=31	=31	=31	=31	=31	=31	=31
2F#mm	F#:min7	8A	all	8c#	all	.	62.947	newline
.	.	8A	it's	8c#	it's	.	.	.
.	.	8B	got	8e	got	.	.	.
.	.	8A	to	8c#	to	.	.	.
2Bm	B:min	8d	take	8f#	take	D	63.996	.
.	.	8B	_	8e	_	.	.	.
.	.	8B	is	8e	is	.	.	.
.	.	8A	some	8d	some	.	.	.
=32	=32	=32	=32	=32	=32	=32	=32	=32
2F#m	F#:min	8r	.	1r	.	.	65.045	.
.	.	4F#	warmth	.	.	.	.	.
.	.	16E	to	.	.	.	.	.
.	.	[16F#	make	.	.	D	.	.
2AMm	A:7	16F#]	_	.	.	.	66.094	.
.	.	8.A	it	.	.	.	.	.
.	.	8B	blow	.	.	.	.	.
.	.	8d	a-	.	.	.	.	.
=33	=33	=33	=33	=33	=33	=33	=33	=33
2FM	F:maj	4f	-way,	4a	way,	.	67.143	.
.	.	8f	blow	8a	blow	.	.	.
.	.	8c	a-	8f	a-	.	.	.
2CM	C:maj	16e	-way	16g	-way	.	68.192	.
.	.	16d	_	16f	_	.	.	.
.	.	8c	_	8e	_	.	.	.
.	.	16e	blow	8g	blow	.	.	.
.	.	16d	_	.	.	.	.	.
.	.	8c	a-	8e	a-	.	.	.
=34	=34	=34	=34	=34	=34	=34	=34	=34
2GM	G:maj	8d	-way	4g	-way	.	69.24	.
.	.	8B	_	.	.	.	.	.
.	.	4r	.	4r	.	.	.	.
2CM	C:maj	2r	.	2r	.	.	70.289	.
=35	=35	=35	=35	=35	=35	=35	=35	=35
*>Letter>D	*>Letter>D	*>Letter>D	*>Letter>D	*>Letter>D	*>Letter>D	*>Letter>D	*>Letter>D	*>Letter>D
*>Label>Interlude	*>Label>Interlude	*>Label>Interlude	*>Label>Interlude	*>Label>Interlude	*>Label>Interlude	*>Label>Interlude	*>Label>Interlude	*>Label>Interlude
2FM	F:maj	1r	.	1r	.	.	71.338	newline
2CM	C:maj	.	.	.	.	.	72.4	.
=36	=36	=36	=36	=36	=36	=36	=36	=36
1AM	A:sus4(b7)	1r	.	1r	.	.	73.461	.
=37	=37	=37	=37	=37	=37	=37	=37	=37
1AM	A:sus4(b7)	1r	.	1r	.	.	75.585	.
=38	=38	=38	=38	=38	=38	=38	=38	=38
*>Letter>B	*>Letter>B	*>Letter>B	*>Letter>B	*>Letter>B	*>Letter>B	*>Letter>B	*>Letter>B	*>Letter>B
*>Label>Verse	*>Label>Verse	*>Label>Verse	*>Label>Verse	*>Label>Verse	*>Label>Verse	*>Label>Verse	*>Label>Verse	*>Label>Verse
1DM	D:maj	8d	Sky	1r	.	.	77.708	newline
.	.	4d	cleared	.	.	.	.	.
.	.	[8d	up	.	.	.	.	.
.	.	8d]	_	.	.	.	.	.
.	.	4r	.	.	.	.	.	.
.	.	[8d	day	.	.	.	.	.
=39	=39	=39	=39	=39	=39	=39	=39	=39
1Bmm	B:min7	8d]	_	1r	.	.	79.847	.
.	.	4d	turned	.	.	.	.	.
.	.	16e	to	.	.	.	.	.
.	.	12d	bright	.	.	F	.	.
.	.	12c#	_	.	.	.	.	.
.	.	12B	_	.	.	.	.	.
.	.	16r	.	.	.	.	.	.
.	.	4r	.	.	.	.	.	.
=40	=40	=40	=40	=40	=40	=40	=40	=40
1F#mm	F#:min7	8r	.	1r	.	.	81.985	.
.	.	[8c#	clo	.	.	.	.	.
.	.	16c#]	_	.	.	.	.	.
.	.	16c#	sing	.	.	.	.	.
.	.	8c#	both	.	.	.	.	.
.	.	4.c#	eyes	.	.	.	.	.
.	.	16A	now	.	.	.	.	.
.	.	16A	the	.	.	.	.	.
=41	=41	=41	=41	=41	=41	=41	=41	=41
.	.	8Aq	_	.	.	.	.	.
2AM	A:sus4(b7)	[4d	head	1r	.	.	84.124	.
.	.	12d]	_	.	.	.	.	.
.	.	12~c#	filled	.	.	.	.	.
.	.	12A	with	.	.	.	.	.
2AM	A:maj	4.G	light	.	.	F	85.193	.
.	.	8r	.	.	.	.	.	.
=42	=42	=42	=42	=42	=42	=42	=42	=42
1DM	D:maj	8r	.	8r	.	.	86.262	newline
.	.	8c#q	_	8eq	_	.	.	.
.	.	[8d	hard	[8f#	hard	.	.	.
.	.	16d]	_	16f#]	_	.	.	.
.	.	16d	to	16f#	to	.	.	.
.	.	8d	re-	8f#	re-	.	.	.
.	.	8d	-mem-	8f#	-mem-	.	.	.
.	.	8d	-ber	8f#	-ber	.	.	.
.	.	8B	_	8e	_	.	.	.
.	.	8B	the	8e	the	.	.	.
=43	=43	=43	=43	=43	=43	=43	=43	=43
1Bmm	B:min7	8d	state	8f#	state	.	88.346	.
.	.	4d	I	4f#	I	.	.	.
.	.	8e	was	8a	was	.	.	.
.	.	12d	in	12f#	in	G	.	.
.	.	12c#	_	12e	_	.	.	.
.	.	12B	_	12d	_	.	.	.
.	.	4r	.	4r	.	.	.	.
=44	=44	=44	=44	=44	=44	=44	=44	=44
1F#mm	F#:min7	8r	.	8r	.	.	90.43	.
.	.	[8c#	in	[8e	in	.	.	.
.	.	16c#]	_	16e]	_	.	.	.
.	.	16c#	stant	16e	stant	.	.	.
.	.	8c#	am-	8e	am-	.	.	.
.	.	6c#	-nes-	6e	-nes-	.	.	.
.	.	6c#	-ia,	6e	-ia,	.	.	.
.	.	12A	_	12e	_	.	.	.
.	.	12A	y-	12e	y-	.	.	.
=45	=45	=45	=45	=45	=45	=45	=45	=45
.	.	8Aq	_	8f#q	_	.	.	.
2AM	A:sus4(b7)	[4d	-yang	[4g	-yang	.	92.514	.
.	.	12d]	_	12g]	_	.	.	.
.	.	12~c#	to	12e	to	.	.	.
.	.	12A	the	12d	the	.	.	.
2AM	A:maj	4.G	yin	4.c#	yin	G	93.556	.
.	.	8r	.	8r	.	.	.	.
=46	=46	=46	=46	=46	=46	=46	=46	=46
1AM	A:sus4(b7)	1r	.	1r	.	.	94.598	.
=47	=47	=47	=47	=47	=47	=47	=47	=47
*>Letter>C	*>Letter>C	*>Letter>C	*>Letter>C	*>Letter>C	*>Letter>C	*>Letter>C	*>Letter>C	*>Letter>C
*>Label>Chorus	*>Label>Chorus	*>Label>Chorus	*>Label>Chorus	*>Label>Chorus	*>Label>Chorus	*>Label>Chorus	*>Label>Chorus	*>Label>Chorus
2DM	D:maj	8A	All	1r	.	.	96.681	newline
.	.	8A	I	.	.	.	.	.
.	.	8B	got	.	.	.	.	.
.	.	8A	to	.	.	.	.	.
2Bm	B:min	8d	do	.	.	C	97.731	.
.	.	8B	_	.	.	.	.	.
.	.	8B	is	.	.	.	.	.
.	.	8A	to	.	.	C	.	.
=48	=48	=48	=48	=48	=48	=48	=48	=48
2F#m	F#:min	4r	.	1r	.	.	98.781	.
.	.	8r	.	.	.	.	.	.
.	.	8A	to	.	.	C	.	.
.	.	8E#q	_	.	.	.	.	.
4AM	A:sus4(b7)	4F#	love	.	.	.	99.831	.
4AMm	A:7	4E	you,	.	.	C	100.356	.
=49	=49	=49	=49	=49	=49	=49	=49	=49
2DM	D:maj	8A	all	1r	.	.	100.881	.
.	.	8A	I	.	.	.	.	.
.	.	8B	got	.	.	.	.	.
.	.	8A	to	.	.	.	.	.
2Bm	B:min	8d	be	.	.	D	101.931	.
.	.	8B	_	.	.	.	.	.
.	.	8B	is	.	.	.	.	.
.	.	8d	a'	.	.	.	.	.
=50	=50	=50	=50	=50	=50	=50	=50	=50
2.CM	C:maj	4r	.	1r	.	.	102.981	.
.	.	16r	.	.	.	.	.	.
.	.	8eq	_	.	.	.	.	.
.	.	8.f	be	.	.	D	.	.
.	.	8e	hap	.	.	.	.	.
.	.	8d	_	.	.	.	.	.
4GM	G:maj	4d	py,	.	.	d	104.555	.
=51	=51	=51	=51	=51	=51	=51	=51	=51
2F#mm	F#:min7	8A	all	1r	.	.	105.08	newline
.	.	8A	it's	.	.	.	.	.
.	.	8B	got	.	.	.	.	.
.	.	8A	to	.	.	.	.	.
2Bm	B:min	8d	take	.	.	E	106.131	.
.	.	8B	_	.	.	.	.	.
.	.	8B	is	.	.	.	.	.
.	.	8A	some	.	.	.	.	.
=52	=52	=52	=52	=52	=52	=52	=52	=52
2F#m	F#:min	8r	.	1r	.	.	107.181	.
.	.	4F#	warmth	.	.	.	.	.
.	.	16E	to	.	.	.	.	.
.	.	[16F#	make	.	.	E	.	.
2AMm	A:7	16F#]	_	.	.	.	108.231	.
.	.	8.A	it	.	.	.	.	.
.	.	8B	blow	.	.	.	.	.
.	.	8d	a-	.	.	.	.	.
=53	=53	=53	=53	=53	=53	=53	=53	=53
2FM	F:maj	4f	-way,	1r	.	.	109.282	.
.	.	8f	blow	.	.	.	.	.
.	.	8c	a-	.	.	.	.	.
2CM	C:maj	16e	-way	.	.	.	110.332	.
.	.	16d	_	.	.	.	.	.
.	.	8c	_	.	.	.	.	.
.	.	16e	blow	.	.	.	.	.
.	.	16d	_	.	.	.	.	.
.	.	8c	a-	.	.	.	.	.
=54	=54	=54	=54	=54	=54	=54	=54	=54
2AM	A:sus4(b7)	8d	-way	1r	.	.	111.383	.
.	.	8r	.	.	.	.	.	.
.	.	4r	.	.	.	.	.	.
2AM	A:maj	4r	.	.	.	.	112.433	.
.	.	8r	.	.	.	.	.	.
.	.	[8A	_	.	.	.	.	.
=55	=55	=55	=55	=55	=55	=55	=55	=55
2DM	D:maj	8A]	All	8d	All	.	113.483	newline
.	.	8A	I	8d	I	.	.	.
.	.	8B	got	8e	got	.	.	.
.	.	8A	to	8d	to	.	.	.
2Bm	B:min	8d	do	8f#	do	C	114.509	.
.	.	8B	_	8e	_	.	.	.
.	.	8B	is	8e	is	.	.	.
.	.	8A	to	8d	to	C	.	.
=56	=56	=56	=56	=56	=56	=56	=56	=56
2F#m	F#:min	4r	.	1r	.	.	115.534	.
.	.	8r	.	.	.	.	.	.
.	.	8A	to	.	.	C	.	.
.	.	8E#q	_	.	.	.	.	.
4AM	A:sus4(b7)	4F#	love	.	.	.	116.559	.
4AMm	A:7	4E	you,	.	.	C	117.072	.
=57	=57	=57	=57	=57	=57	=57	=57	=57
2DM	D:maj	8A	all	8d	all	.	117.584	.
.	.	8A	I	8d	I	.	.	.
.	.	8B	got	8e	got	.	.	.
.	.	8A	to	8d	to	.	.	.
2Bm	B:min	8d	be	8f#	be	D	118.609	.
.	.	8B	_	8e	_	.	.	.
.	.	8B	is	8e	is	.	.	.
.	.	8d	a'	8f#	a'	.	.	.
=58	=58	=58	=58	=58	=58	=58	=58	=58
2.CM	C:maj	4r	.	1r	.	.	119.635	.
.	.	16r	.	.	.	.	.	.
.	.	8eq	_	.	.	.	.	.
.	.	8.f	be	.	.	D	.	.
.	.	8e	hap	.	.	.	.	.
.	.	8d	_	.	.	.	.	.
4GM	G:maj	4d	py,	.	.	d	121.172	.
=59	=59	=59	=59	=59	=59	=59	=59	=59
2F#mm	F#:min7	8A	all	8c#	all	.	121.685	newline
.	.	8A	it's	8c#	it's	.	.	.
.	.	8B	got	8e	got	.	.	.
.	.	8A	to	8c#	to	.	.	.
2Bm	B:min	8d	take	8f#	take	E	122.732	.
.	.	8B	_	8e	_	.	.	.
.	.	8B	is	8e	is	.	.	.
.	.	8A	some	8d	some	.	.	.
=60	=60	=60	=60	=60	=60	=60	=60	=60
2F#m	F#:min	8r	.	1r	.	.	123.779	.
.	.	4F#	warmth	.	.	.	.	.
.	.	16E	to	.	.	.	.	.
.	.	[16F#	make	.	.	E	.	.
2AMm	A:7	16F#]	_	.	.	.	124.826	.
.	.	8.A	it	.	.	.	.	.
.	.	8B	blow	.	.	.	.	.
.	.	8d	a-	.	.	.	.	.
=61	=61	=61	=61	=61	=61	=61	=61	=61
2FM	F:maj	4f	-way,	4a	way,	.	125.874	.
.	.	8f	blow	8a	blow	.	.	.
.	.	8c	a-	8f	a-	.	.	.
2CM	C:maj	16e	-way	16g	-way	.	126.921	.
.	.	16d	_	16f	_	.	.	.
.	.	8c	_	8e	_	.	.	.
.	.	16e	blow	8g	blow	.	.	.
.	.	16d	_	.	.	.	.	.
.	.	8c	a-	8e	a-	.	.	.
=62	=62	=62	=62	=62	=62	=62	=62	=62
2GM	G:maj	4d	-way	4g	-way	.	127.968	.
.	.	4r	.	4r	.	.	.	.
2CM	C:maj	2r	.	2r	.	.	129.015	.
=63	=63	=63	=63	=63	=63	=63	=63	=63
*>Letter>D	*>Letter>D	*>Letter>D	*>Letter>D	*>Letter>D	*>Letter>D	*>Letter>D	*>Letter>D	*>Letter>D
*>Label>Interlude	*>Label>Interlude	*>Label>Interlude	*>Label>Interlude	*>Label>Interlude	*>Label>Interlude	*>Label>Interlude	*>Label>Interlude	*>Label>Interlude
2FM	F:maj	1r	.	1r	.	.	130.062	newline
2CM	C:maj	.	.	.	.	.	131.133	.
=64	=64	=64	=64	=64	=64	=64	=64	=64
1AM	A:sus4(b7)	1r	.	1r	.	.	132.205	.
=65	=65	=65	=65	=65	=65	=65	=65	=65
1AM	A:sus4(b7)	1r	.	1r	.	.	134.347	.
=66	=66	=66	=66	=66	=66	=66	=66	=66
*>Letter>B	*>Letter>B	*>Letter>B	*>Letter>B	*>Letter>B	*>Letter>B	*>Letter>B	*>Letter>B	*>Letter>B
*>Label>Verse	*>Label>Verse	*>Label>Verse	*>Label>Verse	*>Label>Verse	*>Label>Verse	*>Label>Verse	*>Label>Verse	*>Label>Verse
1DM	D:maj	8d	Wind	8f#	Wind	.	136.49	newline
.	.	4d	blew	4f#	blew	.	.	.
.	.	[8d	in	[8f#	in	.	.	.
.	.	8d]	_	8f#]	_	.	.	.
.	.	4r	.	4r	.	.	.	.
.	.	[8d	cloud	[8f#	cloud	.	.	.
=67	=67	=67	=67	=67	=67	=67	=67	=67
1Bmm	B:min7	8d]	_	8f#]	_	.	138.572	.
.	.	4d	was	4f#	was	.	.	.
.	.	16e	dis-	16a	dis-	.	.	.
.	.	12d	-persed	12f#	-persed	H	.	.
.	.	12c#	_	12e	_	.	.	.
.	.	12B	_	12d	_	.	.	.
.	.	16r	.	16r	.	.	.	.
.	.	4r	.	4r	.	.	.	.
=68	=68	=68	=68	=68	=68	=68	=68	=68
1F#mm	F#:min7	8r	.	8r	.	.	140.655	.
.	.	[8c#	rain	[8e	rain	.	.	.
.	.	16c#]	_	16e]	_	.	.	.
.	.	16c#	bows	16e	bows	.	.	.
.	.	8c#	ap-	8e	ap-	.	.	.
.	.	4c#	-pear-	4e	-pear-	.	.	.
.	.	8c#	-ing,	8c#	-ing,	.	.	.
.	.	8A	the	8c#	the	.	.	.
=69	=69	=69	=69	=69	=69	=69	=69	=69
.	.	8Aq	_	8f#q	_	.	.	.
2AM	A:sus4(b7)	[4d	pres	[4g	pres	.	142.737	.
.	.	12d]	_	12g]	_	.	.	.
.	.	12B	sures	12e	sures	.	.	.
.	.	12A	were	12d	were	.	.	.
2AM	A:maj	4.G	burst	4.c#	burst	H	143.778	.
.	.	8r	.	8r	.	.	.	.
=70	=70	=70	=70	=70	=70	=70	=70	=70
1DM	D:maj	8r	.	8r	.	.	144.819	newline
.	.	8c#q	_	8c#q	_	.	.	.
.	.	[8d	Bree	[8f#	Bree	.	.	.
.	.	16d]	_	16f#]	_	.	.	.
.	.	16d	zes	16f#	zes	.	.	.
.	.	8d	a-	8f#	a-	.	.	.
.	.	8d	-sin-	8f#	-sin-	.	.	.
.	.	4d	-ging,	4f#	-ging,	.	.	.
.	.	16d	now	16f#	now	.	.	.
.	.	[16d	I'm	[16f#	I'm	.	.	.
=71	=71	=71	=71	=71	=71	=71	=71	=71
1Bmm	B:min7	8d]	_	8f#]	_	.	146.916	.
.	.	8d	fee-	8f#	fee-	.	.	.
.	.	8e	-ling	8a	-ling	.	.	.
.	.	12d	good	12f#	good	I	.	.
.	.	12c#	_	12e	_	.	.	.
.	.	12B	_	12d	_	.	.	.
.	.	8r	.	8r	.	.	.	.
.	.	4r	.	4r	.	.	.	.
=72	=72	=72	=72	=72	=72	=72	=72	=72
1F#mm	F#:min7	8r	.	8r	.	.	149.012	.
.	.	[8c#	mo	[8e	mo	.	.	.
.	.	16c#]	_	16e]	_	.	.	.
.	.	16c#	ment	16e	ment	.	.	.
.	.	8c#	had	8e	had	.	.	.
.	.	4c#	passed	4e	passed	.	.	.
.	.	12c#	_	12e	_	.	.	.
.	.	12A	like	12c#	like	.	.	.
.	.	12A	I	12c#	I	.	.	.
=73	=73	=73	=73	=73	=73	=73	=73	=73
.	.	8Aq	_	8f#q	_	.	.	.
2AM	A:sus4(b7)	[4d	knew	[4g	knew	.	151.108	.
.	.	12d]	_	12g]	_	.	.	.
.	.	12~c#	that	12~e	that	.	.	.
.	.	12A	it	12d	it	.	.	.
2AM	A:maj	4.G	should	4.c#	should	I	152.156	.
.	.	8r	.	8r	.	.	.	.
=74	=74	=74	=74	=74	=74	=74	=74	=74
1AM	A:sus4(b7)	1r	.	1r	.	.	153.205	.
=75	=75	=75	=75	=75	=75	=75	=75	=75
*>Letter>C	*>Letter>C	*>Letter>C	*>Letter>C	*>Letter>C	*>Letter>C	*>Letter>C	*>Letter>C	*>Letter>C
*>Label>Chorus	*>Label>Chorus	*>Label>Chorus	*>Label>Chorus	*>Label>Chorus	*>Label>Chorus	*>Label>Chorus	*>Label>Chorus	*>Label>Chorus
2DM	D:maj	8A	All	8d	All	.	155.301	newline
.	.	8A	I	8d	I	.	.	.
.	.	8B	got	8e	got	.	.	.
.	.	8A	to	8d	to	.	.	.
2Bm	B:min	8d	do	8f#	do	C	156.35	.
.	.	8B	_	8e	_	.	.	.
.	.	8B	is	8e	is	.	.	.
.	.	8A	to	8d	to	C	.	.
=76	=76	=76	=76	=76	=76	=76	=76	=76
2F#m	F#:min	4r	.	1r	.	.	157.4	.
.	.	8r	.	.	.	.	.	.
.	.	8A	to	.	.	C	.	.
.	.	8E#q	_	.	.	.	.	.
4AM	A:sus4(b7)	4F#	love	.	.	.	158.45	.
4AMm	A:7	4E	you,	.	.	C	158.974	.
=77	=77	=77	=77	=77	=77	=77	=77	=77
2DM	D:maj	8A	all	8d	all	.	159.499	.
.	.	8A	I	8d	I	.	.	.
.	.	8B	got	8e	got	.	.	.
.	.	8A	to	8d	to	.	.	.
2Bm	B:min	8d	be	8f#	be	D	160.549	.
.	.	8B	_	8e	_	.	.	.
.	.	8B	is	8e	is	.	.	.
.	.	8d	a'	8f#	a'	.	.	.
=78	=78	=78	=78	=78	=78	=78	=78	=78
2.CM	C:maj	4r	.	1r	.	.	161.598	.
.	.	16r	.	.	.	.	.	.
.	.	8eq	_	.	.	.	.	.
.	.	8.f	be	.	.	D	.	.
.	.	8e	hap	.	.	.	.	.
.	.	8d	_	.	.	.	.	.
4GM	G:maj	4d	py,	.	.	d	163.173	.
=79	=79	=79	=79	=79	=79	=79	=79	=79
2F#mm	F#:min7	8A	all	8c#	all	.	163.698	newline
.	.	8A	it's	8c#	it's	.	.	.
.	.	8c#	got	8e	got	.	.	.
.	.	8A	to	8c#	to	.	.	.
2Bm	B:min	8d	take	8f#	take	E	164.738	.
.	.	8B	_	8e	_	.	.	.
.	.	8B	is	8e	is	.	.	.
.	.	8A	some	8d	some	.	.	.
=80	=80	=80	=80	=80	=80	=80	=80	=80
2F#m	F#:min	8r	.	1r	.	.	165.779	.
.	.	4F#	warmth	.	.	.	.	.
.	.	16E	to	.	.	.	.	.
.	.	[16F#	make	.	.	E	.	.
2AMm	A:7	16F#]	_	.	.	.	166.82	.
.	.	8.A	it	.	.	.	.	.
.	.	8B	blow	.	.	.	.	.
.	.	8d	a-	.	.	.	.	.
=81	=81	=81	=81	=81	=81	=81	=81	=81
2FM	F:maj	4f	-way,	4a	way,	.	167.861	.
.	.	8f	blow	8a	blow	.	.	.
.	.	8c	a-	8f	a-	.	.	.
2CM	C:maj	16e	-way	16g	-way	.	168.901	.
.	.	16d	_	16f	_	.	.	.
.	.	8c	_	8e	_	.	.	.
.	.	16e	blow	8g	blow	.	.	.
.	.	16d	_	.	.	.	.	.
.	.	8c	a-	8e	a-	.	.	.
=82	=82	=82	=82	=82	=82	=82	=82	=82
2AM	A:sus4(b7)	4d	-way	4g	-way	.	169.942	.
.	.	4r	.	4r	.	.	.	.
2AM	A:maj	2r	.	8f	(Vocalizing)	.	170.983	.
.	.	.	.	8e	_	.	.	.
.	.	.	.	8c#	_	.	.	.
.	.	.	.	8d	_	.	.	.
=83	=83	=83	=83	=83	=83	=83	=83	=83
2DM	D:maj	8A	All	8d	All	.	172.024	newline
.	.	8A	I	8d	I	.	.	.
.	.	8B	got	8e	got	.	.	.
.	.	8A	to	8d	to	.	.	.
2Bm	B:min	8d	do	8f#	do	C	173.058	.
.	.	8B	_	8e	_	.	.	.
.	.	8B	is	8e	is	.	.	.
.	.	8A	to	8d	to	C	.	.
=84	=84	=84	=84	=84	=84	=84	=84	=84
2F#m	F#:min	4r	.	1r	.	.	174.092	.
.	.	8r	.	.	.	.	.	.
.	.	8A	to	.	.	C	.	.
.	.	8E#q	_	.	.	.	.	.
4AM	A:sus4(b7)	4F#	love	.	.	.	175.126	.
4AMm	A:7	4E	you,	.	.	C	175.643	.
=85	=85	=85	=85	=85	=85	=85	=85	=85
2DM	D:maj	8A	all	8d	all	.	176.16	.
.	.	8A	I	8d	I	.	.	.
.	.	8B	got	8e	got	.	.	.
.	.	8A	to	8d	to	.	.	.
2Bm	B:min	8d	be	8f#	be	D	177.194	.
.	.	8B	_	8e	_	.	.	.
.	.	8B	is	8e	is	.	.	.
.	.	8d	a'	8f#	a'	.	.	.
=86	=86	=86	=86	=86	=86	=86	=86	=86
2.CM	C:maj	4r	.	1r	.	.	178.227	.
.	.	16r	.	.	.	.	.	.
.	.	8eq	_	.	.	.	.	.
.	.	8.f	be	.	.	D	.	.
.	.	8e	hap	.	.	.	.	.
.	.	8d	_	.	.	.	.	.
4GM	G:maj	4d	py,	.	.	d	179.778	.
=87	=87	=87	=87	=87	=87	=87	=87	=87
2F#mm	F#:min7	8A	all	8c#	all	.	180.295	newline
.	.	8A	it's	8c#	it's	.	.	.
.	.	8c#	got	8e	got	.	.	.
.	.	8A	to	8c#	to	.	.	.
2Bm	B:min	8d	take	8f#	take	E	181.339	.
.	.	8B	_	8e	_	.	.	.
.	.	8B	is	8e	is	.	.	.
.	.	8A	some	8d	some	.	.	.
=88	=88	=88	=88	=88	=88	=88	=88	=88
2F#m	F#:min	8r	.	1r	.	.	182.382	.
.	.	4F#	warmth	.	.	.	.	.
.	.	16E	to	.	.	.	.	.
.	.	[16F#	make	.	.	E	.	.
2AMm	A:7	16F#]	_	.	.	.	183.426	.
.	.	8.A	it	.	.	.	.	.
.	.	8B	blow	.	.	.	.	.
.	.	8d	a-	.	.	.	.	.
=89	=89	=89	=89	=89	=89	=89	=89	=89
2FM	F:maj	4f	-way,	4a	way,	.	184.469	.
.	.	8f	blow	8a	blow	.	.	.
.	.	8c	a-	8a	a-	.	.	.
.	.	.	.	16f#Q	_	.	.	.
.	.	.	.	16aQ	_	.	.	.
2CM	C:maj	16e	-way	16g	-way	.	185.513	.
.	.	16d	_	16f	_	.	.	.
.	.	8c	_	8e	_	.	.	.
.	.	16e	blow	8g	blow	.	.	.
.	.	16d	_	.	.	.	.	.
.	.	8c	a-	8e	a-	.	.	.
=90	=90	=90	=90	=90	=90	=90	=90	=90
2GM	G:maj	4d	-way	4g	-way	.	186.556	.
.	.	4r	.	4r	.	.	.	.
2CM	C:maj	2r	.	2r	.	.	187.6	.
=91	=91	=91	=91	=91	=91	=91	=91	=91
*>Letter>D	*>Letter>D	*>Letter>D	*>Letter>D	*>Letter>D	*>Letter>D	*>Letter>D	*>Letter>D	*>Letter>D
*>Label>Interlude	*>Label>Interlude	*>Label>Interlude	*>Label>Interlude	*>Label>Interlude	*>Label>Interlude	*>Label>Interlude	*>Label>Interlude	*>Label>Interlude
2FM	F:maj	1r	.	1r	.	.	188.643	newline
2CM	C:maj	.	.	.	.	.	189.695	.
=92	=92	=92	=92	=92	=92	=92	=92	=92
1AM	A:sus4(b7)	1r	.	1r	.	.	190.748	.
=93	=93	=93	=93	=93	=93	=93	=93	=93
1AM	A:sus4(b7)	1r	.	1r	.	.	192.852	.
=94	=94	=94	=94	=94	=94	=94	=94	=94
*>Letter>C	*>Letter>C	*>Letter>C	*>Letter>C	*>Letter>C	*>Letter>C	*>Letter>C	*>Letter>C	*>Letter>C
*>Label>Solo	*>Label>Solo	*>Label>Solo	*>Label>Solo	*>Label>Solo	*>Label>Solo	*>Label>Solo	*>Label>Solo	*>Label>Solo
2DM	D:maj	1r	.	1r	.	.	194.956	newline
2Bm	B:min	.	.	.	.	.	196.004	.
=95	=95	=95	=95	=95	=95	=95	=95	=95
2F#m	F#:min	1r	.	1r	.	.	197.051	.
4AM	A:sus4(b7)	.	.	.	.	.	198.099	.
4AMm	A:7	.	.	.	.	.	198.622	.
=96	=96	=96	=96	=96	=96	=96	=96	=96
2DM	D:maj	1r	.	1r	.	.	199.146	.
2Bm	B:min	.	.	.	.	.	200.194	.
=97	=97	=97	=97	=97	=97	=97	=97	=97
2.CM	C:maj	1r	.	1r	.	.	201.241	.
4GM	G:maj	.	.	.	.	.	202.812	.
=98	=98	=98	=98	=98	=98	=98	=98	=98
*>Letter>C2	*>Letter>C2	*>Letter>C2	*>Letter>C2	*>Letter>C2	*>Letter>C2	*>Letter>C2	*>Letter>C2	*>Letter>C2
*>Label>Chorus	*>Label>Chorus	*>Label>Chorus	*>Label>Chorus	*>Label>Chorus	*>Label>Chorus	*>Label>Chorus	*>Label>Chorus	*>Label>Chorus
2F#mm	F#:min7	8A	all	8c#	all	.	203.336	newline
.	.	8A	it's	8c#	it's	.	.	.
.	.	8c#	got	8e	got	.	.	.
.	.	8A	to	8c#	to	.	.	.
2Bm	B:min	8d	take	8f#	take	E	204.372	.
.	.	8B	_	8e	_	.	.	.
.	.	8B	is	8e	is	.	.	.
.	.	8A	some	8d	some	.	.	.
=99	=99	=99	=99	=99	=99	=99	=99	=99
2F#m	F#:min	8r	.	1r	.	.	205.409	.
.	.	4F#	warmth	.	.	.	.	.
.	.	16E	to	.	.	.	.	.
.	.	[16F#	make	.	.	E	.	.
2AMm	A:7	16F#]	_	.	.	.	206.445	.
.	.	8.A	it	.	.	.	.	.
.	.	8B	blow	.	.	.	.	.
.	.	8d	a-	.	.	.	.	.
=100	=100	=100	=100	=100	=100	=100	=100	=100
2FM	F:maj	4f	-way,	4a	way,	.	207.481	.
.	.	8f	blow	8a	blow	.	.	.
.	.	8c	a-	8f	a-	.	.	.
2CM	C:maj	16e	-way	16g	-way	.	208.518	.
.	.	16d	_	16f	_	.	.	.
.	.	8c	_	8e	_	.	.	.
.	.	16e	blow	8g	blow	.	.	.
.	.	16d	_	.	.	.	.	.
.	.	8c	a-	8e	a-	.	.	.
=101	=101	=101	=101	=101	=101	=101	=101	=101
2AM	A:sus4(b7)	4d	-way	4g	-way	.	209.554	.
.	.	4r	.	8r	.	.	.	.
.	.	.	.	16f	(Vocalizing)	.	.	.
.	.	.	.	[16e	_	.	.	.
2AM	A:maj	8r	.	4e]	_	.	210.59	.
.	.	4.d	(Ah)	.	.	.	.	.
.	.	.	.	4d	_	.	.	.
=102	=102	=102	=102	=102	=102	=102	=102	=102
2DM	D:maj	8A	All	8d	All	.	211.627	newline
.	.	8A	I	8d	I	.	.	.
.	.	8B	got	8e	got	.	.	.
.	.	8A	to	8d	to	.	.	.
2Bm	B:min	8d	do	8f#	do	C	212.654	.
.	.	8B	_	8e	_	.	.	.
.	.	8B	is	8e	is	.	.	.
.	.	8A	to	8d	to	C	.	.
=103	=103	=103	=103	=103	=103	=103	=103	=103
2F#m	F#:min	4r	.	1r	.	.	213.681	.
.	.	8r	.	.	.	.	.	.
.	.	8A	to	.	.	C	.	.
.	.	8E#q	_	.	.	.	.	.
4AM	A:sus4(b7)	4F#	love	.	.	.	214.709	.
4AMm	A:7	4E	you,	.	.	C	215.222	.
=104	=104	=104	=104	=104	=104	=104	=104	=104
2DM	D:maj	8A	all	8d	all	.	215.736	.
.	.	8A	I	8d	I	.	.	.
.	.	8B	got	8e	got	.	.	.
.	.	8A	to	8d	to	.	.	.
2Bm	B:min	8d	be	8f#	be	D	216.763	.
.	.	8B	_	8e	_	.	.	.
.	.	8B	is	8e	is	.	.	.
.	.	8d	a'	8f#	a'	.	.	.
=105	=105	=105	=105	=105	=105	=105	=105	=105
2.CM	C:maj	4r	.	1r	.	.	217.791	.
.	.	16r	.	.	.	.	.	.
.	.	8eq	_	.	.	.	.	.
.	.	8.f	be	.	.	D	.	.
.	.	8e	hap	.	.	.	.	.
.	.	8d	_	.	.	.	.	.
4GM	G:maj	4d	py,	.	.	d	219.332	.
=106	=106	=106	=106	=106	=106	=106	=106	=106
2F#mm	F#:min7	8A	all	8c#	all	.	219.845	newline
.	.	8A	it's	8c#	it's	.	.	.
.	.	8c#	got	8e	got	.	.	.
.	.	8A	to	8c#	to	.	.	.
2Bm	B:min	8d	take	8f#	take	E	220.897	.
.	.	8B	_	8e	_	.	.	.
.	.	8B	is	8e	is	.	.	.
.	.	8A	some	8d	some	.	.	.
=107	=107	=107	=107	=107	=107	=107	=107	=107
2F#m	F#:min	8r	.	1r	.	.	221.948	.
.	.	4F#	warmth	.	.	.	.	.
.	.	16E	to	.	.	.	.	.
.	.	[16F#	make	.	.	E	.	.
2AMm	A:7	16F#]	_	.	.	.	222.999	.
.	.	8.A	it	.	.	.	.	.
.	.	8B	blow	.	.	.	.	.
.	.	8d	a-	.	.	.	.	.
=108	=108	=108	=108	=108	=108	=108	=108	=108
2FM	F:maj	4f	-way,	4a	way,	.	224.05	.
.	.	8f	blow	8a	blow	.	.	.
.	.	8c	a-	8a	a-	.	.	.
.	.	.	.	16f#Q	_	.	.	.
.	.	.	.	16aQ	_	.	.	.
2CM	C:maj	16e	-way	16g	-way	.	225.101	.
.	.	16d	_	16f	_	.	.	.
.	.	8c	_	8e	_	.	.	.
.	.	16e	blow	8g	blow	.	.	.
.	.	16d	_	.	.	.	.	.
.	.	8c	a-	8e	a-	.	.	.
=109	=109	=109	=109	=109	=109	=109	=109	=109
2GM	G:maj	4d	-way	4g	-way	.	226.152	.
.	.	4r	.	4r	.	.	.	.
2CM	C:maj	4r	.	2r	.	.	227.203	.
.	.	4d	Ah	.	.	.	.	.
=110	=110	=110	=110	=110	=110	=110	=110	=110
*>Letter>D	*>Letter>D	*>Letter>D	*>Letter>D	*>Letter>D	*>Letter>D	*>Letter>D	*>Letter>D	*>Letter>D
*>Label>Outro	*>Label>Outro	*>Label>Outro	*>Label>Outro	*>Label>Outro	*>Label>Outro	*>Label>Outro	*>Label>Outro	*>Label>Outro
2FM	F:maj	4f	_	1r	.	.	228.254	newline
.	.	4e	_	.	.	.	.	.
2CM	C:maj	4.d	_	.	.	.	229.304	.
.	.	8r	.	.	.	.	.	.
=111	=111	=111	=111	=111	=111	=111	=111	=111
1AM	A:sus4(b7)	1r	.	1r	.	.	230.355	.
=112	=112	=112	=112	=112	=112	=112	=112	=112
1AM	A:sus4(b7)	1r	.	1r	.	.	232.456	.
1r;	1r	r;	.	r;	.	.	237.708	.
1r;	1r	r;	.	r;	.	.	240.718	.
*-	*-	*-	*-	*-	*-	*-	*-	*-
!!!BillboardChartDate: 1979/04/07
!!!BillboardPeak: 16
!!!BillboardWeeksOnChart: 14
!!!COC: George Harrison
!!!ENC: Nathaniel Condit-Schultz
!!!EST: Awating manual error checking and editing.
!!!OTL: Blow Away
!!!RDF**chordsym: original McGill chord annotation + (implied pitch class set, with bass pitch in first position)
!!!RDF**harmony: **recip + pitch class of root + harmonic quality
!!!RDF**leadinstrument: original McGill primary instrumentation annotation
!!!RDF**phrase: newline = linebreak in original McGill transcription
!!!RDF**timestamp: McGill audio timestamp in seconds
!!!RDT: 2017/01/12/
!!!SampleActualRank: 26
!!!SampleID#: 0419
!!!SampleTargetRank: 26
!!!MBID: 24352418-7187-40fa-be69-5baa14c473cc